{ "compressionlevel":-1,
 "height":20,
 "infinite":false,
 "layers":[
        {
         "data":[2, 2684354566, 2, 2684354561, 2684354566, 2684354561, 2684354561, 2684354561, 2684354562, 2684354566, 2, 2684354566, 2684354566, 2684354566, 2684354566, 2684354566, 2684354566, 2684354566, 2684354566, 2684354562, 2684354566, 2684354566, 2684354566, 2684354566, 2684354566, 2684354566, 2684354566, 2684354566, 2684354566, 2684354562,
            6, 2684354566, 6, 5, 1, 5, 5, 5, 5, 1610612742, 1610612738, 2684354566, 2684354566, 2684354566, 5, 2684354566, 2684354566, 2684354566, 1, 3221225474, 1610612742, 2684354566, 2684354566, 2684354566, 6, 2, 2684354566, 2684354566, 5, 1,
            6, 1610612738, 3221225474, 5, 5, 5, 6, 6, 5, 5, 5, 1, 5, 1610612742, 1, 5, 1, 5, 1, 5, 5, 3221225478, 3221225478, 2684354566, 1610612742, 6, 1610612737, 2684354561, 2684354566, 1,
            6, 1610612742, 5, 5, 1, 5, 6, 2684354561, 2684354566, 2684354566, 2684354566, 1, 5, 1610612742, 1, 5, 1, 5, 5, 5, 2, 3221225478, 3221225478, 5, 1610612742, 3221225474, 5, 5, 5, 1,
            6, 1, 5, 7, 3221225478, 5, 6, 1, 3221225478, 2684354566, 2, 2, 5, 5, 5, 5, 5, 5, 6, 6, 6, 5, 5, 5, 5, 5, 3221225474, 5, 1, 1,
            6, 1, 1610612742, 1610612742, 1610612742, 1610612742, 1610612742, 1, 3221225478, 1610612742, 1610612742, 1610612742, 2684354562, 1610612742, 1, 5, 1, 5, 1, 1, 1, 2684354561, 2684354566, 2684354566, 2684354561, 6, 1610612742, 1610612742, 3221225478, 1,
            6, 5, 5, 5, 5, 5, 5, 5, 5, 5, 5, 5, 5, 5, 5, 5, 5, 5, 5, 5, 5, 5, 5, 5, 5, 5, 5, 5, 5, 3221225478,
            6, 2, 2684354561, 2684354563, 5, 2, 2684354566, 2684354566, 2684354562, 5, 7, 5, 1610612739, 2684354561, 2684354561, 2684354561, 2684354563, 5, 2, 2684354561, 2684354563, 5, 2, 2684354561, 2684354563, 5, 3, 5, 3, 3221225478,
            6, 1, 5, 5, 5, 6, 2, 2684354562, 3221225478, 5, 5, 5, 5, 5, 1, 5, 5, 5, 1, 5, 5, 5, 6, 6, 5, 5, 1, 5, 1, 3221225478,
            6, 1, 5, 5, 5, 6, 1610612738, 3221225474, 3221225478, 5, 3, 5, 5, 5, 1, 5, 5, 5, 1, 5, 5, 5, 6, 6, 5, 5, 1, 5, 1, 3221225478,
            5, 6, 2684354561, 2684354563, 5, 6, 1610612742, 1610612742, 3221225474, 5, 1, 5, 5, 5, 1, 5, 5, 5, 6, 2684354561, 2684354563, 5, 6, 6, 5, 5, 6, 2684354561, 3221225478, 5,
            6, 1, 5, 5, 5, 1, 5, 5, 5, 5, 1, 5, 5, 5, 1, 5, 5, 5, 1, 5, 5, 5, 6, 6, 5, 5, 1, 5, 1, 3221225478,
            6, 1, 5, 5, 5, 1, 5, 5, 5, 5, 1, 5, 5, 5, 1, 5, 5, 5, 1, 5, 5, 5, 6, 6, 5, 5, 1, 5, 1, 3221225478,
            6, 1610612738, 2684354561, 2684354563, 5, 3221225475, 5, 5, 5, 5, 3221225475, 5, 5, 5, 3221225475, 5, 5, 5, 1610612738, 2684354561, 2684354563, 5, 1610612738, 2684354561, 2684354563, 5, 3221225475, 5, 3221225475, 3221225478,
            6, 5, 5, 5, 5, 5, 5, 5, 5, 5, 5, 5, 5, 5, 5, 5, 5, 5, 5, 5, 5, 5, 5, 5, 5, 5, 5, 5, 5, 3221225478,
            7, 7, 7, 7, 7, 7, 7, 7, 7, 7, 7, 7, 7, 7, 7, 7, 7, 7, 7, 7, 7, 7, 7, 7, 7, 7, 7, 7, 7, 7,
            7, 1, 1, 1, 1, 1, 1, 1, 1, 1, 1, 1, 1, 1, 1, 1, 1, 1, 1, 1, 1, 1, 1, 1, 1, 1, 1, 1, 1, 7,
            7, 7, 7, 7, 7, 7, 7, 7, 7, 7, 7, 7, 7, 7, 7, 7, 7, 7, 7, 7, 7, 7, 7, 7, 7, 7, 7, 7, 7, 7,
            7, 1, 1, 1, 1, 1, 1, 1, 1, 1, 1, 1, 1, 1, 1, 1, 1, 1, 1, 1, 1, 1, 1, 1, 1, 1, 1, 1, 1, 7,
            7, 7, 7, 7, 7, 7, 7, 7, 7, 7, 7, 7, 7, 7, 7, 7, 7, 7, 7, 7, 7, 7, 7, 7, 7, 7, 7, 7, 7, 7],
         "height":20,
         "id":1,
         "name":"Calque de Tuiles 1",
         "offsetx":0.416666666666686,
         "offsety":0,
         "opacity":1,
         "type":"tilelayer",
         "visible":true,
         "width":30,
         "x":0,
         "y":0
        }],
 "nextlayerid":2,
 "nextobjectid":1,
 "orientation":"orthogonal",
 "renderorder":"right-down",
 "tiledversion":"1.11.2",
 "tileheight":30,
 "tilesets":[
        {
         "firstgid":1,
         "source":"pixil-frame-0.tsx"
        }, 
        {
         "firstgid":2,
         "source":"pixil-frame-0 (1).tsx"
        }, 
        {
         "firstgid":3,
         "source":"pixil-frame-0 (2).tsx"
        }, 
        {
         "firstgid":4,
         "source":"pixil-frame-0 (3).tsx"
        }, 
        {
         "firstgid":5,
         "source":"pixil-frame-0 (6).tsx"
        }, 
        {
         "firstgid":6,
         "source":"pixil-frame-0 (7).tsx"
        }, 
        {
         "firstgid":7,
         "source":"pixil-frame-0 (8).tsx"
        }],
 "tilewidth":30,
 "type":"map",
 "version":"1.10",
 "width":30
}